icons/modern/fried-shrimp.svg

<svg width="32" height="32" viewBox="0 0 32 32" fill="none" xmlns="http://www.w3.org/2000/svg">
<path d="M13.88 29.84V21.65C12.32 22.25 10.23 21.49 10.12 19.29C10.11 19.19 10.11 19.09 10.11 18.98V12.94V6.19995C10.11 6.06188 9.99764 5.94849 9.86041 5.96372C8.73727 6.08841 7.86 7.04429 7.86 8.19995V12.64C7.86 12.81 7.72 12.95 7.55 12.95C7.38 12.95 7.24 12.81 7.24 12.64V8.19995C7.24932 7.0443 6.37268 6.08842 5.24959 5.96372C5.11236 5.94849 5 6.06188 5 6.19995V12.94V18.88C5 26.09 8.99 29.31 14.23 29.88C14.12 29.87 14 29.86 13.88 29.84Z" fill="#D1344C"/>
<path d="M13.88 29.84V21.65C12.32 22.25 10.23 21.49 10.12 19.29C10.11 19.19 10.11 19.09 10.11 18.98V12.94V6.19995C10.11 6.06188 9.99764 5.94849 9.86041 5.96372C8.73727 6.08841 7.86 7.04429 7.86 8.19995V12.64C7.86 12.81 7.72 12.95 7.55 12.95C7.38 12.95 7.24 12.81 7.24 12.64V8.19995C7.24932 7.0443 6.37268 6.08842 5.24959 5.96372C5.11236 5.94849 5 6.06188 5 6.19995V12.94V18.88C5 26.09 8.99 29.31 14.23 29.88C14.12 29.87 14 29.86 13.88 29.84Z" fill="url(#paint0_radial_18_30826)"/>
<path d="M14.29 29.89C14.41 29.9 14.52 29.91 14.64 29.92C14.53 29.92 14.41 29.91 14.29 29.89Z" fill="url(#paint1_linear_18_30826)"/>
<path d="M14.23 29.89C14.25 29.89 14.27 29.89 14.29 29.9C14.27 29.89 14.25 29.89 14.23 29.89Z" fill="url(#paint2_linear_18_30826)"/>
<path d="M18.59 2.94995C14.68 2.94995 11.51 6.11995 11.51 10.03V11.13C11.51 13.27 12.63 15.14 14.32 16.2C15.11 16.69 15.57 17.57 15.57 18.5V19.13C15.57 20.45 14.83 21.3 13.89 21.66V29.86C14.56 29.95 15.26 29.99 15.97 30C22.04 30.02 26.99 25.08 26.99 19.01V14.94V11.35C26.98 6.70995 23.22 2.94995 18.59 2.94995Z" fill="#F89331"/>
<path d="M18.59 2.94995C14.68 2.94995 11.51 6.11995 11.51 10.03V11.13C11.51 13.27 12.63 15.14 14.32 16.2C15.11 16.69 15.57 17.57 15.57 18.5V19.13C15.57 20.45 14.83 21.3 13.89 21.66V29.86C14.56 29.95 15.26 29.99 15.97 30C22.04 30.02 26.99 25.08 26.99 19.01V14.94V11.35C26.98 6.70995 23.22 2.94995 18.59 2.94995Z" fill="url(#paint3_radial_18_30826)"/>
<path d="M18.59 2.94995C14.68 2.94995 11.51 6.11995 11.51 10.03V11.13C11.51 13.27 12.63 15.14 14.32 16.2C15.11 16.69 15.57 17.57 15.57 18.5V19.13C15.57 20.45 14.83 21.3 13.89 21.66V29.86C14.56 29.95 15.26 29.99 15.97 30C22.04 30.02 26.99 25.08 26.99 19.01V14.94V11.35C26.98 6.70995 23.22 2.94995 18.59 2.94995Z" fill="url(#paint4_radial_18_30826)"/>
<path d="M18.59 2.94995C14.68 2.94995 11.51 6.11995 11.51 10.03V11.13C11.51 13.27 12.63 15.14 14.32 16.2C15.11 16.69 15.57 17.57 15.57 18.5V19.13C15.57 20.45 14.83 21.3 13.89 21.66V29.86C14.56 29.95 15.26 29.99 15.97 30C22.04 30.02 26.99 25.08 26.99 19.01V14.94V11.35C26.98 6.70995 23.22 2.94995 18.59 2.94995Z" fill="url(#paint5_radial_18_30826)"/>
<path d="M18.59 2.94995C14.68 2.94995 11.51 6.11995 11.51 10.03V11.13C11.51 13.27 12.63 15.14 14.32 16.2C15.11 16.69 15.57 17.57 15.57 18.5V19.13C15.57 20.45 14.83 21.3 13.89 21.66V29.86C14.56 29.95 15.26 29.99 15.97 30C22.04 30.02 26.99 25.08 26.99 19.01V14.94V11.35C26.98 6.70995 23.22 2.94995 18.59 2.94995Z" fill="url(#paint6_radial_18_30826)"/>
<path d="M18.59 2.94995C14.68 2.94995 11.51 6.11995 11.51 10.03V11.13C11.51 13.27 12.63 15.14 14.32 16.2C15.11 16.69 15.57 17.57 15.57 18.5V19.13C15.57 20.45 14.83 21.3 13.89 21.66V29.86C14.56 29.95 15.26 29.99 15.97 30C22.04 30.02 26.99 25.08 26.99 19.01V14.94V11.35C26.98 6.70995 23.22 2.94995 18.59 2.94995Z" fill="url(#paint7_radial_18_30826)"/>
<path d="M18.59 2.94995C14.68 2.94995 11.51 6.11995 11.51 10.03V11.13C11.51 13.27 12.63 15.14 14.32 16.2C15.11 16.69 15.57 17.57 15.57 18.5V19.13C15.57 20.45 14.83 21.3 13.89 21.66V29.86C14.56 29.95 15.26 29.99 15.97 30C22.04 30.02 26.99 25.08 26.99 19.01V14.94V11.35C26.98 6.70995 23.22 2.94995 18.59 2.94995Z" fill="url(#paint8_radial_18_30826)"/>
<path d="M14.1 12.78C14.586 12.78 14.98 12.386 14.98 11.9C14.98 11.4139 14.586 11.02 14.1 11.02C13.614 11.02 13.22 11.4139 13.22 11.9C13.22 12.386 13.614 12.78 14.1 12.78Z" fill="url(#paint9_radial_18_30826)"/>
<path d="M17.79 13.26C18.4085 13.26 18.91 12.7585 18.91 12.14C18.91 11.5214 18.4085 11.02 17.79 11.02C17.1714 11.02 16.67 11.5214 16.67 12.14C16.67 12.7585 17.1714 13.26 17.79 13.26Z" fill="url(#paint10_radial_18_30826)"/>
<path d="M15.81 10.02C16.7544 10.02 17.52 9.25438 17.52 8.30998C17.52 7.36557 16.7544 6.59998 15.81 6.59998C14.8656 6.59998 14.1 7.36557 14.1 8.30998C14.1 9.25438 14.8656 10.02 15.81 10.02Z" fill="url(#paint11_radial_18_30826)"/>
<g filter="url(#filter0_f_18_30826)">
<path d="M8.8125 14.25C8.8125 13.6977 8.36478 13.25 7.8125 13.25C7.26021 13.25 6.8125 13.6977 6.8125 14.25L8.8125 14.25ZM12.4039 24.9606L13.3957 25.088L13.6505 23.1043L12.6586 22.9769L12.4039 24.9606ZM8.12499 19.75L7.13953 19.9199L8.12499 19.75ZM6.8125 14.25C6.81251 15.794 6.80989 18.0079 7.13953 19.9199L9.11045 19.5801C8.81511 17.8671 8.81251 15.8298 8.8125 14.25L6.8125 14.25ZM7.13953 19.9199C7.36831 21.2469 7.64831 22.4793 8.49301 23.3865C9.35861 24.3161 10.644 24.7346 12.4039 24.9606L12.6586 22.9769C11.0122 22.7654 10.3266 22.4208 9.95671 22.0235C9.56589 21.6038 9.34589 20.9456 9.11045 19.5801L7.13953 19.9199Z" fill="#FF876D"/>
</g>
<g filter="url(#filter1_f_18_30826)">
<path d="M8.01562 7.95312C8.01562 6.82812 9.41146 6.22396 9.95312 6.04688V13.1562L8.1875 15.2812H6.96875L5.17188 13.25V6.10938C6.39688 6.10938 7.09896 7.30729 7.10938 7.95312V12.5859C7.10938 12.7109 7.0875 13.1562 7.5625 13.1562C8.0375 13.1562 7.95052 12.7109 7.96094 12.5859C7.96094 11.4714 8.01562 9.07812 8.01562 7.95312Z" fill="url(#paint12_linear_18_30826)"/>
</g>
<g filter="url(#filter2_f_18_30826)">
<path d="M6.96875 12.8906L5.32812 13.2656" stroke="url(#paint13_linear_18_30826)" stroke-width="0.3"/>
</g>
<g filter="url(#filter3_f_18_30826)">
<path d="M6.96875 12.8906L5.33594 13.0625" stroke="url(#paint14_linear_18_30826)" stroke-width="0.3"/>
</g>
<g filter="url(#filter4_f_18_30826)">
<path d="M8.0625 12.8906L9.60938 13.2344" stroke="url(#paint15_linear_18_30826)" stroke-width="0.3"/>
</g>
<g filter="url(#filter5_f_18_30826)">
<path d="M5.28125 6.1875C5.63542 6.23438 6.44375 6.5375 6.84375 7.375" stroke="url(#paint16_radial_18_30826)" stroke-width="0.25"/>
</g>
<g filter="url(#filter6_f_18_30826)">
<path d="M9.95312 6.1875C9.59896 6.23438 8.79063 6.5375 8.39062 7.375" stroke="url(#paint17_radial_18_30826)" stroke-width="0.25"/>
</g>
<defs>
<filter id="filter0_f_18_30826" x="5.3125" y="11.75" width="9.83801" height="14.838" filterUnits="userSpaceOnUse" color-interpolation-filters="sRGB">
<feFlood flood-opacity="0" result="BackgroundImageFix"/>
<feBlend mode="normal" in="SourceGraphic" in2="BackgroundImageFix" result="shape"/>
<feGaussianBlur stdDeviation="0.75" result="effect1_foregroundBlur_18_30826"/>
</filter>
<filter id="filter1_f_18_30826" x="4.87187" y="5.74687" width="5.38125" height="9.83438" filterUnits="userSpaceOnUse" color-interpolation-filters="sRGB">
<feFlood flood-opacity="0" result="BackgroundImageFix"/>
<feBlend mode="normal" in="SourceGraphic" in2="BackgroundImageFix" result="shape"/>
<feGaussianBlur stdDeviation="0.15" result="effect1_foregroundBlur_18_30826"/>
</filter>
<filter id="filter2_f_18_30826" x="4.79468" y="12.2444" width="2.70752" height="1.66748" filterUnits="userSpaceOnUse" color-interpolation-filters="sRGB">
<feFlood flood-opacity="0" result="BackgroundImageFix"/>
<feBlend mode="normal" in="SourceGraphic" in2="BackgroundImageFix" result="shape"/>
<feGaussianBlur stdDeviation="0.25" result="effect1_foregroundBlur_18_30826"/>
</filter>
<filter id="filter3_f_18_30826" x="4.82025" y="12.2415" width="2.66418" height="1.47021" filterUnits="userSpaceOnUse" color-interpolation-filters="sRGB">
<feFlood flood-opacity="0" result="BackgroundImageFix"/>
<feBlend mode="normal" in="SourceGraphic" in2="BackgroundImageFix" result="shape"/>
<feGaussianBlur stdDeviation="0.25" result="effect1_foregroundBlur_18_30826"/>
</filter>
<filter id="filter4_f_18_30826" x="7.52997" y="12.2442" width="2.61194" height="1.6366" filterUnits="userSpaceOnUse" color-interpolation-filters="sRGB">
<feFlood flood-opacity="0" result="BackgroundImageFix"/>
<feBlend mode="normal" in="SourceGraphic" in2="BackgroundImageFix" result="shape"/>
<feGaussianBlur stdDeviation="0.25" result="effect1_foregroundBlur_18_30826"/>
</filter>
<filter id="filter5_f_18_30826" x="5.01483" y="5.8136" width="2.19171" height="1.8653" filterUnits="userSpaceOnUse" color-interpolation-filters="sRGB">
<feFlood flood-opacity="0" result="BackgroundImageFix"/>
<feBlend mode="normal" in="SourceGraphic" in2="BackgroundImageFix" result="shape"/>
<feGaussianBlur stdDeviation="0.125" result="effect1_foregroundBlur_18_30826"/>
</filter>
<filter id="filter6_f_18_30826" x="8.02783" y="5.8136" width="2.19171" height="1.8653" filterUnits="userSpaceOnUse" color-interpolation-filters="sRGB">
<feFlood flood-opacity="0" result="BackgroundImageFix"/>
<feBlend mode="normal" in="SourceGraphic" in2="BackgroundImageFix" result="shape"/>
<feGaussianBlur stdDeviation="0.125" result="effect1_foregroundBlur_18_30826"/>
</filter>
<radialGradient id="paint0_radial_18_30826" cx="0" cy="0" r="1" gradientUnits="userSpaceOnUse" gradientTransform="translate(13.25 13) rotate(90.924) scale(15.502 9.3758)">
<stop offset="0.586216" stop-color="#FF5C1E"/>
<stop offset="0.860208" stop-color="#FF4A3B"/>
<stop offset="1" stop-color="#D8314E"/>
</radialGradient>
<linearGradient id="paint1_linear_18_30826" x1="14.4323" y1="29.9737" x2="14.506" y2="29.8461" gradientUnits="userSpaceOnUse">
<stop stop-color="#FF2C00"/>
<stop offset="1" stop-color="#FF8C00"/>
</linearGradient>
<linearGradient id="paint2_linear_18_30826" x1="14.257" y1="29.9007" x2="14.2692" y2="29.8796" gradientUnits="userSpaceOnUse">
<stop stop-color="#FF2C00"/>
<stop offset="1" stop-color="#FF8C00"/>
</linearGradient>
<radialGradient id="paint3_radial_18_30826" cx="0" cy="0" r="1" gradientUnits="userSpaceOnUse" gradientTransform="translate(17.25 8.19995) rotate(88.2466) scale(12.2557 12.2852)">
<stop offset="0.21102" stop-color="#FFD437"/>
<stop offset="0.596588" stop-color="#FFA53A"/>
<stop offset="1" stop-color="#D67D35" stop-opacity="0"/>
</radialGradient>
<radialGradient id="paint4_radial_18_30826" cx="0" cy="0" r="1" gradientUnits="userSpaceOnUse" gradientTransform="translate(26.625 15.0625) rotate(31.5281) scale(20.6773 13.6108)">
<stop offset="0.74112" stop-color="#B79C31" stop-opacity="0"/>
<stop offset="0.84934" stop-color="#BAA332"/>
</radialGradient>
<radialGradient id="paint5_radial_18_30826" cx="0" cy="0" r="1" gradientUnits="userSpaceOnUse" gradientTransform="translate(12.875 24.2) rotate(-8.02178) scale(12.1817 6.97125)">
<stop offset="0.14939" stop-color="#FFE24F"/>
<stop offset="0.559433" stop-color="#FFB535"/>
<stop offset="0.786553" stop-color="#F8953F"/>
<stop offset="1" stop-color="#F38D2B" stop-opacity="0"/>
</radialGradient>
<radialGradient id="paint6_radial_18_30826" cx="0" cy="0" r="1" gradientUnits="userSpaceOnUse" gradientTransform="translate(15.75 9.9375) rotate(82.51) scale(31.645 21.0895)">
<stop offset="0.527875" stop-color="#F79E52" stop-opacity="0"/>
<stop offset="0.606046" stop-color="#D27040"/>
<stop offset="0.633305" stop-color="#C76057"/>
</radialGradient>
<radialGradient id="paint7_radial_18_30826" cx="0" cy="0" r="1" gradientUnits="userSpaceOnUse" gradientTransform="translate(18.6875 11.75) rotate(89.2727) scale(44.3161 11.8592)">
<stop offset="0.567623" stop-color="#C07A47" stop-opacity="0"/>
<stop offset="0.739416" stop-color="#D37D35"/>
</radialGradient>
<radialGradient id="paint8_radial_18_30826" cx="0" cy="0" r="1" gradientUnits="userSpaceOnUse" gradientTransform="translate(12.375 17.375) rotate(88.1221) scale(3.81455 7.11433)">
<stop stop-color="#C26B57"/>
<stop offset="1" stop-color="#C16959" stop-opacity="0"/>
</radialGradient>
<radialGradient id="paint9_radial_18_30826" cx="0" cy="0" r="1" gradientUnits="userSpaceOnUse" gradientTransform="translate(14.6563 11.5625) rotate(130.266) scale(1.59552)">
<stop offset="0.152793" stop-color="#EC7931"/>
<stop offset="1" stop-color="#E16A28"/>
</radialGradient>
<radialGradient id="paint10_radial_18_30826" cx="0" cy="0" r="1" gradientUnits="userSpaceOnUse" gradientTransform="translate(18.4375 11.5625) rotate(129.009) scale(2.18449)">
<stop stop-color="#FF8B44"/>
<stop offset="1" stop-color="#FD7535"/>
</radialGradient>
<radialGradient id="paint11_radial_18_30826" cx="0" cy="0" r="1" gradientUnits="userSpaceOnUse" gradientTransform="translate(17 7.625) rotate(136.736) scale(2.91815)">
<stop offset="0.202752" stop-color="#FF9742"/>
<stop offset="1" stop-color="#FF8028"/>
</radialGradient>
<linearGradient id="paint12_linear_18_30826" x1="10.375" y1="7.25" x2="7.53125" y2="15.2813" gradientUnits="userSpaceOnUse">
<stop offset="0.704615" stop-color="#FF8B52"/>
<stop offset="1" stop-color="#FF8B52" stop-opacity="0"/>
</linearGradient>
<linearGradient id="paint13_linear_18_30826" x1="6.96875" y1="12.8906" x2="4.73438" y2="13.2656" gradientUnits="userSpaceOnUse">
<stop offset="0.216742" stop-color="#FF9B6F"/>
<stop offset="1" stop-color="#FF986D" stop-opacity="0"/>
</linearGradient>
<linearGradient id="paint14_linear_18_30826" x1="6.96875" y1="12.8906" x2="4.73438" y2="13.2656" gradientUnits="userSpaceOnUse">
<stop offset="0.216742" stop-color="#FF9B6F"/>
<stop offset="1" stop-color="#FF986D" stop-opacity="0"/>
</linearGradient>
<linearGradient id="paint15_linear_18_30826" x1="8.0625" y1="12.8906" x2="10.2969" y2="13.2656" gradientUnits="userSpaceOnUse">
<stop offset="0.216742" stop-color="#FF9B6F"/>
<stop offset="1" stop-color="#FF986D" stop-opacity="0"/>
</linearGradient>
<radialGradient id="paint16_radial_18_30826" cx="0" cy="0" r="1" gradientUnits="userSpaceOnUse" gradientTransform="translate(5.59375 6.5625) rotate(50.7546) scale(1.43248 1.88484)">
<stop stop-color="#FFA36A"/>
<stop offset="1" stop-color="#FFA972" stop-opacity="0"/>
</radialGradient>
<radialGradient id="paint17_radial_18_30826" cx="0" cy="0" r="1" gradientUnits="userSpaceOnUse" gradientTransform="translate(9.64063 6.5625) rotate(129.245) scale(1.43248 1.88484)">
<stop stop-color="#FFB374"/>
<stop offset="1" stop-color="#FFA972" stop-opacity="0"/>
</radialGradient>
</defs>
</svg>

<svg width="32" height="32" fill="none" xmlns="http://www.w3.org/2000/svg"><path d="M13.88 29.84v-8.19c-1.56.6-3.65-.16-3.76-2.36-.01-.1-.01-.2-.01-.31V6.2c0-.138-.112-.252-.25-.236-1.123.124-2 1.08-2 2.236v4.44c0 .17-.14.31-.31.31-.17 0-.31-.14-.31-.31V8.2a2.238 2.238 0 0 0-1.99-2.236C5.112 5.948 5 6.062 5 6.2v12.68c0 7.21 3.99 10.43 9.23 11-.11-.01-.23-.02-.35-.04Z" fill="#D1344C"/><path d="M13.88 29.84v-8.19c-1.56.6-3.65-.16-3.76-2.36-.01-.1-.01-.2-.01-.31V6.2c0-.138-.112-.252-.25-.236-1.123.124-2 1.08-2 2.236v4.44c0 .17-.14.31-.31.31-.17 0-.31-.14-.31-.31V8.2a2.238 2.238 0 0 0-1.99-2.236C5.112 5.948 5 6.062 5 6.2v12.68c0 7.21 3.99 10.43 9.23 11-.11-.01-.23-.02-.35-.04Z" fill="url(#a)"/><path d="m14.29 29.89.35.03c-.11 0-.23-.01-.35-.03Z" fill="url(#b)"/><path d="M14.23 29.89c.02 0 .04 0 .06.01-.02-.01-.04-.01-.06-.01Z" fill="url(#c)"/><path d="M18.59 2.95a7.08 7.08 0 0 0-7.08 7.08v1.1a5.97 5.97 0 0 0 2.81 5.07c.79.49 1.25 1.37 1.25 2.3v.63c0 1.32-.74 2.17-1.68 2.53v8.2c.67.09 1.37.13 2.08.14 6.07.02 11.02-4.92 11.02-10.99v-7.66c-.01-4.64-3.77-8.4-8.4-8.4Z" fill="#F89331"/><path d="M18.59 2.95a7.08 7.08 0 0 0-7.08 7.08v1.1a5.97 5.97 0 0 0 2.81 5.07c.79.49 1.25 1.37 1.25 2.3v.63c0 1.32-.74 2.17-1.68 2.53v8.2c.67.09 1.37.13 2.08.14 6.07.02 11.02-4.92 11.02-10.99v-7.66c-.01-4.64-3.77-8.4-8.4-8.4Z" fill="url(#d)"/><path d="M18.59 2.95a7.08 7.08 0 0 0-7.08 7.08v1.1a5.97 5.97 0 0 0 2.81 5.07c.79.49 1.25 1.37 1.25 2.3v.63c0 1.32-.74 2.17-1.68 2.53v8.2c.67.09 1.37.13 2.08.14 6.07.02 11.02-4.92 11.02-10.99v-7.66c-.01-4.64-3.77-8.4-8.4-8.4Z" fill="url(#e)"/><path d="M18.59 2.95a7.08 7.08 0 0 0-7.08 7.08v1.1a5.97 5.97 0 0 0 2.81 5.07c.79.49 1.25 1.37 1.25 2.3v.63c0 1.32-.74 2.17-1.68 2.53v8.2c.67.09 1.37.13 2.08.14 6.07.02 11.02-4.92 11.02-10.99v-7.66c-.01-4.64-3.77-8.4-8.4-8.4Z" fill="url(#f)"/><path d="M18.59 2.95a7.08 7.08 0 0 0-7.08 7.08v1.1a5.97 5.97 0 0 0 2.81 5.07c.79.49 1.25 1.37 1.25 2.3v.63c0 1.32-.74 2.17-1.68 2.53v8.2c.67.09 1.37.13 2.08.14 6.07.02 11.02-4.92 11.02-10.99v-7.66c-.01-4.64-3.77-8.4-8.4-8.4Z" fill="url(#g)"/><path d="M18.59 2.95a7.08 7.08 0 0 0-7.08 7.08v1.1a5.97 5.97 0 0 0 2.81 5.07c.79.49 1.25 1.37 1.25 2.3v.63c0 1.32-.74 2.17-1.68 2.53v8.2c.67.09 1.37.13 2.08.14 6.07.02 11.02-4.92 11.02-10.99v-7.66c-.01-4.64-3.77-8.4-8.4-8.4Z" fill="url(#h)"/><path d="M18.59 2.95a7.08 7.08 0 0 0-7.08 7.08v1.1a5.97 5.97 0 0 0 2.81 5.07c.79.49 1.25 1.37 1.25 2.3v.63c0 1.32-.74 2.17-1.68 2.53v8.2c.67.09 1.37.13 2.08.14 6.07.02 11.02-4.92 11.02-10.99v-7.66c-.01-4.64-3.77-8.4-8.4-8.4Z" fill="url(#i)"/><path d="M14.1 12.78a.88.88 0 1 0 0-1.76.88.88 0 0 0 0 1.76Z" fill="url(#j)"/><path d="M17.79 13.26a1.12 1.12 0 1 0 0-2.24 1.12 1.12 0 0 0 0 2.24Z" fill="url(#k)"/><path d="M15.81 10.02a1.71 1.71 0 1 0 0-3.42 1.71 1.71 0 0 0 0 3.42Z" fill="url(#l)"/><g filter="url(#m)"><path d="M8.813 14.25a1 1 0 1 0-2 0h2Zm3.59 10.71.993.128.254-1.984-.991-.127-.255 1.984Zm-4.278-5.21-.985.17.985-.17Zm-1.313-5.5c0 1.544-.002 3.758.328 5.67l1.97-.34c-.295-1.713-.297-3.75-.297-5.33h-2Zm.328 5.67c.228 1.327.508 2.56 1.353 3.466.866.93 2.151 1.349 3.91 1.575l.256-1.984c-1.647-.212-2.332-.556-2.702-.954-.391-.42-.611-1.077-.847-2.443l-1.97.34Z" fill="#FF876D"/></g><g filter="url(#n)"><path d="M8.016 7.953c0-1.125 1.395-1.729 1.937-1.906v7.11L8.188 15.28h-1.22L5.173 13.25V6.11c1.225 0 1.927 1.197 1.937 1.843v4.633c0 .125-.021.57.454.57.474 0 .388-.445.398-.57 0-1.115.055-3.508.055-4.633Z" fill="url(#o)"/></g><g filter="url(#p)"><path d="m6.969 12.89-1.64.376" stroke="url(#q)" stroke-width=".3"/></g><g filter="url(#r)"><path d="m6.969 12.89-1.633.172" stroke="url(#s)" stroke-width=".3"/></g><g filter="url(#t)"><path d="m8.063 12.89 1.546.344" stroke="url(#u)" stroke-width=".3"/></g><g filter="url(#v)"><path d="M5.281 6.188c.354.046 1.163.35 1.563 1.187" stroke="url(#w)" stroke-width=".25"/></g><g filter="url(#x)"><path d="M9.953 6.188c-.354.046-1.162.35-1.562 1.187" stroke="url(#y)" stroke-width=".25"/></g><defs><radialGradient id="a" cx="0" cy="0" r="1" gradientUnits="userSpaceOnUse" gradientTransform="rotate(90.924 .229 13.019) scale(15.502 9.3758)"><stop offset=".586" stop-color="#FF5C1E"/><stop offset=".86" stop-color="#FF4A3B"/><stop offset="1" stop-color="#D8314E"/></radialGradient><radialGradient id="d" cx="0" cy="0" r="1" gradientUnits="userSpaceOnUse" gradientTransform="matrix(.375 12.24996 -12.27945 .3759 17.25 8.2)"><stop offset=".211" stop-color="#FFD437"/><stop offset=".597" stop-color="#FFA53A"/><stop offset="1" stop-color="#D67D35" stop-opacity="0"/></radialGradient><radialGradient id="e" cx="0" cy="0" r="1" gradientUnits="userSpaceOnUse" gradientTransform="matrix(17.625 10.8125 -7.11731 11.60163 26.625 15.063)"><stop offset=".741" stop-color="#B79C31" stop-opacity="0"/><stop offset=".849" stop-color="#BAA332"/></radialGradient><radialGradient id="f" cx="0" cy="0" r="1" gradientUnits="userSpaceOnUse" gradientTransform="matrix(12.0625 -1.69995 .97283 6.90304 12.875 24.2)"><stop offset=".149" stop-color="#FFE24F"/><stop offset=".559" stop-color="#FFB535"/><stop offset=".787" stop-color="#F8953F"/><stop offset="1" stop-color="#F38D2B" stop-opacity="0"/></radialGradient><radialGradient id="g" cx="0" cy="0" r="1" gradientUnits="userSpaceOnUse" gradientTransform="rotate(82.51 2.21 13.947) scale(31.645 21.0895)"><stop offset=".528" stop-color="#F79E52" stop-opacity="0"/><stop offset=".606" stop-color="#D27040"/><stop offset=".633" stop-color="#C76057"/></radialGradient><radialGradient id="h" cx="0" cy="0" r="1" gradientUnits="userSpaceOnUse" gradientTransform="matrix(.56252 44.31253 -11.85824 .15053 18.688 11.75)"><stop offset=".568" stop-color="#C07A47" stop-opacity="0"/><stop offset=".739" stop-color="#D37D35"/></radialGradient><radialGradient id="i" cx="0" cy="0" r="1" gradientUnits="userSpaceOnUse" gradientTransform="matrix(.125 3.8125 -7.1105 .23313 12.375 17.375)"><stop stop-color="#C26B57"/><stop offset="1" stop-color="#C16959" stop-opacity="0"/></radialGradient><radialGradient id="j" cx="0" cy="0" r="1" gradientUnits="userSpaceOnUse" gradientTransform="rotate(130.266 4.649 9.178) scale(1.59552)"><stop offset=".153" stop-color="#EC7931"/><stop offset="1" stop-color="#E16A28"/></radialGradient><radialGradient id="k" cx="0" cy="0" r="1" gradientUnits="userSpaceOnUse" gradientTransform="rotate(129.009 6.462 10.177) scale(2.18449)"><stop stop-color="#FF8B44"/><stop offset="1" stop-color="#FD7535"/></radialGradient><radialGradient id="l" cx="0" cy="0" r="1" gradientUnits="userSpaceOnUse" gradientTransform="rotate(136.736 6.988 7.183) scale(2.91815)"><stop offset=".203" stop-color="#FF9742"/><stop offset="1" stop-color="#FF8028"/></radialGradient><radialGradient id="w" cx="0" cy="0" r="1" gradientUnits="userSpaceOnUse" gradientTransform="rotate(50.755 -4.12 9.177) scale(1.43248 1.88484)"><stop stop-color="#FFA36A"/><stop offset="1" stop-color="#FFA972" stop-opacity="0"/></radialGradient><radialGradient id="y" cx="0" cy="0" r="1" gradientUnits="userSpaceOnUse" gradientTransform="rotate(129.245 3.264 5.568) scale(1.43248 1.88484)"><stop stop-color="#FFB374"/><stop offset="1" stop-color="#FFA972" stop-opacity="0"/></radialGradient><filter id="m" x="5.313" y="11.75" width="9.838" height="14.838" filterUnits="userSpaceOnUse" color-interpolation-filters="sRGB"><feFlood flood-opacity="0" result="BackgroundImageFix"/><feBlend in="SourceGraphic" in2="BackgroundImageFix" result="shape"/><feGaussianBlur stdDeviation=".75" result="effect1_foregroundBlur_18_30826"/></filter><filter id="n" x="4.872" y="5.747" width="5.381" height="9.834" filterUnits="userSpaceOnUse" color-interpolation-filters="sRGB"><feFlood flood-opacity="0" result="BackgroundImageFix"/><feBlend in="SourceGraphic" in2="BackgroundImageFix" result="shape"/><feGaussianBlur stdDeviation=".15" result="effect1_foregroundBlur_18_30826"/></filter><filter id="p" x="4.795" y="12.244" width="2.708" height="1.667" filterUnits="userSpaceOnUse" color-interpolation-filters="sRGB"><feFlood flood-opacity="0" result="BackgroundImageFix"/><feBlend in="SourceGraphic" in2="BackgroundImageFix" result="shape"/><feGaussianBlur stdDeviation=".25" result="effect1_foregroundBlur_18_30826"/></filter><filter id="r" x="4.82" y="12.242" width="2.664" height="1.47" filterUnits="userSpaceOnUse" color-interpolation-filters="sRGB"><feFlood flood-opacity="0" result="BackgroundImageFix"/><feBlend in="SourceGraphic" in2="BackgroundImageFix" result="shape"/><feGaussianBlur stdDeviation=".25" result="effect1_foregroundBlur_18_30826"/></filter><filter id="t" x="7.53" y="12.244" width="2.612" height="1.637" filterUnits="userSpaceOnUse" color-interpolation-filters="sRGB"><feFlood flood-opacity="0" result="BackgroundImageFix"/><feBlend in="SourceGraphic" in2="BackgroundImageFix" result="shape"/><feGaussianBlur stdDeviation=".25" result="effect1_foregroundBlur_18_30826"/></filter><filter id="v" x="5.015" y="5.814" width="2.192" height="1.865" filterUnits="userSpaceOnUse" color-interpolation-filters="sRGB"><feFlood flood-opacity="0" result="BackgroundImageFix"/><feBlend in="SourceGraphic" in2="BackgroundImageFix" result="shape"/><feGaussianBlur stdDeviation=".125" result="effect1_foregroundBlur_18_30826"/></filter><filter id="x" x="8.028" y="5.814" width="2.192" height="1.865" filterUnits="userSpaceOnUse" color-interpolation-filters="sRGB"><feFlood flood-opacity="0" result="BackgroundImageFix"/><feBlend in="SourceGraphic" in2="BackgroundImageFix" result="shape"/><feGaussianBlur stdDeviation=".125" result="effect1_foregroundBlur_18_30826"/></filter><linearGradient id="b" x1="14.432" y1="29.974" x2="14.506" y2="29.846" gradientUnits="userSpaceOnUse"><stop stop-color="#FF2C00"/><stop offset="1" stop-color="#FF8C00"/></linearGradient><linearGradient id="c" x1="14.257" y1="29.901" x2="14.269" y2="29.88" gradientUnits="userSpaceOnUse"><stop stop-color="#FF2C00"/><stop offset="1" stop-color="#FF8C00"/></linearGradient><linearGradient id="o" x1="10.375" y1="7.25" x2="7.531" y2="15.281" gradientUnits="userSpaceOnUse"><stop offset=".705" stop-color="#FF8B52"/><stop offset="1" stop-color="#FF8B52" stop-opacity="0"/></linearGradient><linearGradient id="q" x1="6.969" y1="12.891" x2="4.734" y2="13.266" gradientUnits="userSpaceOnUse"><stop offset=".217" stop-color="#FF9B6F"/><stop offset="1" stop-color="#FF986D" stop-opacity="0"/></linearGradient><linearGradient id="s" x1="6.969" y1="12.891" x2="4.734" y2="13.266" gradientUnits="userSpaceOnUse"><stop offset=".217" stop-color="#FF9B6F"/><stop offset="1" stop-color="#FF986D" stop-opacity="0"/></linearGradient><linearGradient id="u" x1="8.063" y1="12.891" x2="10.297" y2="13.266" gradientUnits="userSpaceOnUse"><stop offset=".217" stop-color="#FF9B6F"/><stop offset="1" stop-color="#FF986D" stop-opacity="0"/></linearGradient></defs></svg>
